X:1
T:Title
%%score { ( 1 4 ) | ( 2 3 ) }
L:1/8
M:3/4
K:F
V:1 treble nm="Grand Piano"
V:4 treble 
V:2 bass 
V:3 bass 
V:1
 z2 z[Q:1/4=90] A [=B,_A]=A | [A,F]3 B [CA]_A | [CA]3 A [Ec]B | [CA]3 [B,G] [B,G][CA] | %4
[M:3/8] [A,F]3 | A[=B,_A]=A |[M:3/4] [A,F]3 G [CA]c | [DB]3 d [Ec]B | AF [CA]3 [B,G] | %9
[M:3/8] [A,F]3[K:bass] | cdc |[M:3/4] A4 z2 | [Ge]4 z2 | [GB]4 z2 | [FA]3 [Fc] [^Fd][Ac] | %15
 [GB]4 z2 | [FA]4 z2 | [Ff]2- [Ff]/-(3:2:2[Ff]/c/4[FA] [Ed]>[Ec] |[M:3/8] [A,F]3 |] %19
V:2
 z2 z C z C | z C, F,D z =B, | z C, F,C z D | F,,C, F,C, E,C, |[M:3/8] z C,F, | C z C | %6
[M:3/4] z C, F,B, z _E | z F, B,F z D | CA, C,,C, E,C, |[M:3/8] F,,3 | [F,A,F][F,B,F][F,A,F] | %11
[M:3/4] F-[C,F-] [F,F][F,A,F] [F,B,F][F,A,F] | [C,C]C, C,C, C,C, | C,C, C,[C,C] [E,C][E,C] | %14
 [F,C]3 [F,A,] [D,A,][^F,D] | [G,D]D, G,F, E,C, | F,C, F,_E, D,[^C,_A,] | %17
 [C,A,]3 [C,C] [C,B,]>[C,B,] |[M:3/8] [F,,F,]3 |] %19
V:3
 z2 z2 F,,2 | F,,4 F,,2 | F,,4 C,2 | x6 |[M:3/8] F,,3 | z F,,2 |[M:3/4] F,,4 F,,2 | B,,4 B,,2 | %8
 x6 |[M:3/8] x3 | x3 |[M:3/4] .[F,C]2 z2 z2 | x6 | x6 | x6 | x6 | x6 | x6 |[M:3/8] x3 |] %19
V:4
 x6 | x6 | x6 | x6 |[M:3/8] x3 | x3 |[M:3/4] x6 | x6 | x6 |[M:3/8] z[K:bass] C,F, | x3 | %11
[M:3/4] z C Cc dc | z B, B,[B,EG] [B,EG][A,FA] | CC C[Ed] [Gd][Gc] | x6 | z D D[DG=B] [CGc][CG_B] | %16
 CC C[CFA] [B,FB][Ff] | x6 |[M:3/8] x3 |] %19

